assets/icons/standard/work_plan_template.svg

<svg xmlns="http://www.w3.org/2000/svg" width="100" height="100" viewBox="0 0 100 100"><path d="M33.3,73.5a4.89,4.89,0,0,1-4.8-4.9v-34H26.9a4.89,4.89,0,0,0-4.8,4.9V74.9a4.89,4.89,0,0,0,4.8,4.9H62.5a4.89,4.89,0,0,0,4.8-4.9V73.5Z" fill="#fff"/><path d="M46.5,30.2H64.3a1.58,1.58,0,0,0,1.6-1.6V25.3A4.91,4.91,0,0,0,61,20.4H49.7a4.91,4.91,0,0,0-4.9,4.9v3.3A1.73,1.73,0,0,0,46.5,30.2Zm26.7-5.7H71.6a.74.74,0,0,0-.8.8v3.3a6.57,6.57,0,0,1-6.5,6.6H46.5A6.57,6.57,0,0,1,40,28.6V25.3a.74.74,0,0,0-.8-.8H37.6a4.91,4.91,0,0,0-4.9,4.9V64.7a4.91,4.91,0,0,0,4.9,4.9H73.2a4.91,4.91,0,0,0,4.9-4.9V29.4A4.91,4.91,0,0,0,73.2,24.5ZM46.5,59.8a1.58,1.58,0,0,1-1.6,1.6H43.3a1.58,1.58,0,0,1-1.6-1.6V58.2a1.58,1.58,0,0,1,1.6-1.6h1.6a1.58,1.58,0,0,1,1.6,1.6Zm0-8.2a1.58,1.58,0,0,1-1.6,1.6H43.3a1.58,1.58,0,0,1-1.6-1.6V50a1.58,1.58,0,0,1,1.6-1.6h1.6A1.58,1.58,0,0,1,46.5,50Zm0-8.2A1.58,1.58,0,0,1,44.9,45H43.3a1.58,1.58,0,0,1-1.6-1.6V41.8a1.58,1.58,0,0,1,1.6-1.6h1.6a1.58,1.58,0,0,1,1.6,1.6ZM69.2,59.8a1.58,1.58,0,0,1-1.6,1.6H51.4a1.58,1.58,0,0,1-1.6-1.6V58.2a1.58,1.58,0,0,1,1.6-1.6H67.6a1.58,1.58,0,0,1,1.6,1.6Zm0-8.2a1.58,1.58,0,0,1-1.6,1.6H51.4a1.58,1.58,0,0,1-1.6-1.6V50a1.58,1.58,0,0,1,1.6-1.6H67.6A1.58,1.58,0,0,1,69.2,50Zm0-8.2A1.58,1.58,0,0,1,67.6,45H51.4a1.58,1.58,0,0,1-1.6-1.6V41.8a1.58,1.58,0,0,1,1.6-1.6H67.6a1.58,1.58,0,0,1,1.6,1.6Z" fill="#fff"/></svg>

<?xml version="1.0"?><svg xmlns="http://www.w3.org/2000/svg" width="100" height="100" viewBox="0 0 100 100"><title></title><path d="m33.3 73.5a4.9 4.9 0 0 1-4.8-4.9v-34h-1.6a4.9 4.9 0 0 0-4.8 4.9v35.4a4.9 4.9 0 0 0 4.8 4.9h35.6a4.9 4.9 0 0 0 4.8-4.9v-1.4z m13.2-43.3h17.8a1.6 1.6 0 0 0 1.6-1.6v-3.3a4.9 4.9 0 0 0-4.9-4.9h-11.3a4.9 4.9 0 0 0-4.9 4.9v3.3a1.7 1.7 0 0 0 1.7 1.6z m26.7-5.7h-1.6a0.7 0.7 0 0 0-0.8 0.8v3.3a6.6 6.6 0 0 1-6.5 6.6h-17.8a6.6 6.6 0 0 1-6.5-6.6v-3.3a0.7 0.7 0 0 0-0.8-0.8h-1.6a4.9 4.9 0 0 0-4.9 4.9v35.3a4.9 4.9 0 0 0 4.9 4.9h35.6a4.9 4.9 0 0 0 4.9-4.9v-35.3a4.9 4.9 0 0 0-4.9-4.9z m-26.7 35.3a1.6 1.6 0 0 1-1.6 1.6h-1.6a1.6 1.6 0 0 1-1.6-1.6v-1.6a1.6 1.6 0 0 1 1.6-1.6h1.6a1.6 1.6 0 0 1 1.6 1.6z m0-8.2a1.6 1.6 0 0 1-1.6 1.6h-1.6a1.6 1.6 0 0 1-1.6-1.6v-1.6a1.6 1.6 0 0 1 1.6-1.6h1.6a1.6 1.6 0 0 1 1.6 1.6z m0-8.2a1.6 1.6 0 0 1-1.6 1.6h-1.6a1.6 1.6 0 0 1-1.6-1.6v-1.6a1.6 1.6 0 0 1 1.6-1.6h1.6a1.6 1.6 0 0 1 1.6 1.6z m22.7 16.4a1.6 1.6 0 0 1-1.6 1.6h-16.2a1.6 1.6 0 0 1-1.6-1.6v-1.6a1.6 1.6 0 0 1 1.6-1.6h16.2a1.6 1.6 0 0 1 1.6 1.6z m0-8.2a1.6 1.6 0 0 1-1.6 1.6h-16.2a1.6 1.6 0 0 1-1.6-1.6v-1.6a1.6 1.6 0 0 1 1.6-1.6h16.2a1.6 1.6 0 0 1 1.6 1.6z m0-8.2a1.6 1.6 0 0 1-1.6 1.6h-16.2a1.6 1.6 0 0 1-1.6-1.6v-1.6a1.6 1.6 0 0 1 1.6-1.6h16.2a1.6 1.6 0 0 1 1.6 1.6z" fill="#fff"></path></svg>
